Adwaita++/devices/16/battery.svg

<svg height="16.001" width="16" xmlns="http://www.w3.org/2000/svg">
  <g fill="#474747">
    <path d="m5 5v2h6v-2z"/>
    <path d="m5.469 0c-.49 0-.797.216-1.032.456s-.437.556-.437 1.03v.514h-2v14h12v-14h-2v-.406l-.002-.028a1.616 1.616 0 0 0 -.416-1.011c-.236-.28-.62-.585-1.2-.553l.056-.002zm.53 2h4v2h2v10h-7.999v-10h2z"/>
    <path d="m5 8v2h6v-2zm0 3v2h6v-2z"/>
  </g>
</svg>

<svg xmlns="http://www.w3.org/2000/svg" width="16" height="16.001">
    <g fill="#474747">
        <path d="M5 5v2h6V5z" style="marker:none" color="#000" overflow="visible"/>
        <path d="M5.469 0c-.49 0-.797.216-1.032.456C4.202.696 4 1.012 4 1.486V2H2v14h12V2h-2v-.406l-.002-.028a1.616 1.616 0 0 0-.416-1.011c-.236-.28-.62-.585-1.2-.553L10.438 0zm.53 2h4v2h2v10H4V4h2z" style="line-height:normal;font-variant-ligatures:normal;font-variant-position:normal;font-variant-caps:normal;font-variant-numeric:normal;font-variant-alternates:normal;font-feature-settings:normal;text-indent:0;text-align:start;text-decoration-line:none;text-decoration-style:solid;text-decoration-color:#000;text-transform:none;text-orientation:mixed;shape-padding:0;isolation:auto;mix-blend-mode:normal;marker:none" color="#bebebe" font-weight="400" font-family="sans-serif" white-space="normal" overflow="visible"/>
        <path d="M5 8v2h6V8zM5 11v2h6v-2z" style="marker:none" color="#000" overflow="visible"/>
    </g>
</svg>
